src/svg/it-card.svg

<?xml version="1.0" encoding="utf-8"?>
<!-- Generator: Adobe Illustrator 25.4.1, SVG Export Plug-In . SVG Version: 6.00 Build 0)  -->
<svg version="1.1" id="Livello_1" xmlns="http://www.w3.org/2000/svg" xmlns:xlink="http://www.w3.org/1999/xlink" x="0px" y="0px"
	 viewBox="0 0 24 24" style="enable-background:new 0 0 24 24;" xml:space="preserve">
<g>
	<path d="M20.5,5h-17C2.7,5,2,5.7,2,6.5v11C2,18.3,2.7,19,3.5,19h17c0.8,0,1.5-0.7,1.5-1.5v-11C22,5.7,21.3,5,20.5,5z M3,9h18v3H3V9
		z M21,17.5c0,0.3-0.2,0.5-0.5,0.5h-17C3.2,18,3,17.8,3,17.5V13h18V17.5z M3,8V6.5C3,6.2,3.2,6,3.5,6h17C20.8,6,21,6.2,21,6.5V8H3z
		 M8,15H4v-1h4V15z"/>
</g>
</svg>

<svg xmlns="http://www.w3.org/2000/svg" width="24" height="24"
     viewBox="0 0 24 24">
  <title>Credit Card</title>
  <g>
    <path
      d="M20.5,5H3.5A1.5,1.5,0,0,0,2,6.5v11A1.5,1.5,0,0,0,3.5,19h17A1.5,1.5,0,0,0,22,17.5V6.5A1.5,1.5,0,0,0,20.5,5ZM3,9H21v3H3Zm18,8.5a.5.5,0,0,1-.5.5H3.5a.5.5,0,0,1-.5-.5V13H21ZM3,8V6.5A.5.5,0,0,1,3.5,6h17a.5.5,0,0,1,.5.5V8Zm5,7H4V14H8Z"
    />
  </g>
  <g>
    <rect width="24" height="24" fill="none"/>
  </g>
</svg>
